img/service/advisory.svg

<svg height="51" viewBox="0 0 60 51" width="60" xmlns="http://www.w3.org/2000/svg"><g fill="none" fill-rule="evenodd"><g fill="#9b9b9b"><path d="m39 51c-.2558909 0-.5122397-.0979617-.7072479-.2929695l-5.7069646-5.7069542h-13.5860273c-.5520653 0-.9997602-.4467785-.9997602-1.0002162v-27.999644c0-.5534376.4476949-1.0002161.9997602-1.0002161h40.0000218c.5520654 0 1.000218.4467785 1.000218 1.0002161v27.999644c0 .5534377-.4481526 1.0002162-1.000218 1.0002162h-13.5860272l-5.7069646 5.7069542c-.1950081.1950078-.4508992.2929695-.7067902.2929695zm-19.0000217-7.9998983h13.0000871c.2650463 0 .5200218.1048282.7067902.2929695l5.2931444 5.2931347 5.2931444-5.2931347c.1867684-.1881413.4417439-.2929695.7067902-.2929695h13.0000872v-26.0001272h-38.0000435z" fill-rule="nonzero"/><path d="m19.0000217 32h-17.99980375c-.55206533 0-1.00021795-.4467778-1.00021795-.9997568v-30.00002865c0-.55343678.44815262-1.00021455 1.00021795-1.00021455h40.00002185c.5520653 0 .9997602.44677777.9997602 1.00021455v15.00001435c0 .552979-.4476949.9997568-.9997602.9997568h-21v14.0002575c0 .552979-.4481526.9997568-1.0002181.9997568zm-17.00004353-1.9999714h16.00028333v-13.9997997c0-.5534368.4476949-1.0002146.9997602-1.0002146h21v-13.00004294h-38.00004353z" fill-rule="nonzero"/><path d="m13.9997711 17h-7.99999998c-.55207147 0-.99977112-.4467842-.99977112-.9997711 0-.5534447.44769965-1.0002289.99977112-1.0002289h7.99999998c.5520714 0 1.0002289.4467842 1.0002289 1.0002289 0 .5529869-.4481575.9997711-1.0002289.9997711z"/><path d="m13.9997711 22h-7.99999998c-.55207147 0-.99977112-.4472419-.99977112-1.0002289 0-.5529869.44769965-.9997711.99977112-.9997711h7.99999998c.5520714 0 1.0002289.4467842 1.0002289.9997711 0 .552987-.4481575 1.0002289-1.0002289 1.0002289z"/><path d="m13.9997711 27h-7.99999998c-.55207147 0-.99977112-.4467841-.99977112-.9997711 0-.5529869.44769965-1.0002289.99977112-1.0002289h7.99999998c.5520714 0 1.0002289.447242 1.0002289 1.0002289 0 .552987-.4481575.9997711-1.0002289.9997711z"/></g><path d="m35.9997855 12h-30.00002869c-.55206357 0-.99975681-.4467842-.99975681-.9997711v-5.99999994c0-.55298695.44769324-1.00022896.99975681-1.00022896h30.00002869c.5520634 0 1.0002145.44724201 1.0002145 1.00022896v5.99999994c0 .5529869-.4481511.9997711-1.0002145.9997711z" fill="#5fb50c" fill-rule="nonzero"/><path d="m39.0002288 43c-6.6169485 0-12.0002288-5.3828225-12.0002288-11.9997711 0-6.6174064 5.3832803-12.0002289 12.0002288-12.0002289 6.6169487 0 11.9997712 5.3828225 11.9997712 12.0002289 0 6.6169486-5.3828225 11.9997711-11.9997712 11.9997711z" fill="#5fb50c" fill-rule="nonzero"/><path d="m38.9999999 31c-2.2059968 0-3.9999999-1.7943583-3.9999999-4.0002288 0-2.2058706 1.7940031-3.9997712 3.9999999-3.9997712 2.2059969 0 4.0000001 1.7939006 4.0000001 3.9997712 0 2.2058705-1.7940032 4.0002288-4.0000001 4.0002288zm0-6.0001145c-1.1032272 0-1.9999999.8971792-1.9999999 1.9998857 0 1.1031641.8967727 1.9998855 1.9999999 1.9998855 1.1027696 0 2.0000001-.8967214 2.0000001-1.9998855 0-1.1027065-.8972305-1.9998857-2.0000001-1.9998857z" fill="#fff" fill-rule="nonzero"/><path d="m36.0000001 37c-2.2059969 0-4.0000001-1.7939006-4.0000001-3.9997712 0-2.2058705 1.7940032-4.0002288 4.0000001-4.0002288 2.2059968 0 3.9999999 1.7943583 3.9999999 4.0002288 0 2.2058706-1.7940031 3.9997712-3.9999999 3.9997712zm0-5.9996567c-1.1027696 0-2.0000001.8967214-2.0000001 1.9998855 0 1.1027065.8972305 1.9998857 2.0000001 1.9998857 1.1032272 0 1.9999999-.8971792 1.9999999-1.9998857 0-1.1031641-.8967727-1.9998855-1.9999999-1.9998855z" fill="#fff" fill-rule="nonzero"/><path d="m41.9997712 37c-2.2058706 0-3.9997712-1.7939006-3.9997712-3.9997712 0-2.2058705 1.7939006-4.0002288 3.9997712-4.0002288 2.2058705 0 4.0002288 1.7943583 4.0002288 4.0002288 0 2.2058706-1.7943583 3.9997712-4.0002288 3.9997712zm0-5.9996567c-1.1027065 0-1.9998857.8967214-1.9998857 1.9998855 0 1.1027065.8971792 1.9998857 1.9998857 1.9998857 1.1031641 0 1.9998855-.8971792 1.9998855-1.9998857 0-1.1031641-.8967214-1.9998855-1.9998855-1.9998855z" fill="#fff" fill-rule="nonzero"/></g></svg>

<?xml version="1.0" encoding="UTF-8"?>
<svg width="60px" height="51px" viewBox="0 0 60 51" version="1.1" xmlns="http://www.w3.org/2000/svg" xmlns:xlink="http://www.w3.org/1999/xlink">
    <!-- Generator: Sketch 52.1 (67048) - http://www.bohemiancoding.com/sketch -->
    <title>Group 5</title>
    <desc>Created with Sketch.</desc>
    <g id="Page-1" stroke="none" stroke-width="1" fill="none" fill-rule="evenodd">
        <g id="Hamon_Home" transform="translate(-730.000000, -1204.000000)">
            <g id="Services_section" transform="translate(269.000000, 824.000000)">
                <g id="Group-5" transform="translate(461.000000, 380.000000)">
                    <path d="M39,51 C38.7441091,51 38.4877603,50.9020383 38.2927521,50.7070305 L32.5857875,45.0000763 L18.9997602,45.0000763 C18.4476949,45.0000763 18,44.5532978 18,43.9998601 L18,16.0002161 C18,15.4467785 18.4476949,15 18.9997602,15 L58.999782,15 C59.5518474,15 60,15.4467785 60,16.0002161 L60,43.9998601 C60,44.5532978 59.5518474,45.0000763 58.999782,45.0000763 L45.4137548,45.0000763 L39.7067902,50.7070305 C39.5117821,50.9020383 39.255891,51 39,51 Z M19.9999783,43.0001017 L33.0000654,43.0001017 C33.2651117,43.0001017 33.5200872,43.1049299 33.7068556,43.2930712 L39,48.5862059 L44.2931444,43.2930712 C44.4799128,43.1049299 44.7348883,43.0001017 44.9999346,43.0001017 L58.0000218,43.0001017 L58.0000218,16.9999745 L19.9999783,16.9999745 L19.9999783,43.0001017 Z" id="Shape" fill="#9B9B9B" fill-rule="nonzero"></path>
                    <path d="M19.0000217,32 L1.00021795,32 C0.448152617,32 0,31.5532222 0,31.0002432 L0,1.00021455 C0,0.44677777 0.448152617,0 1.00021795,0 L41.0002398,0 C41.5523051,0 42,0.44677777 42,1.00021455 L42,16.0002289 C42,16.5532079 41.5523051,16.9999857 41.0002398,16.9999857 L20.0002398,16.9999857 L20.0002398,31.0002432 C20.0002398,31.5532222 19.5520872,32 19.0000217,32 Z M1.99997817,30.0000286 L18.0002615,30.0000286 L18.0002615,16.0002289 C18.0002615,15.4467921 18.4479564,15.0000143 19.0000217,15.0000143 L40.0000217,15.0000143 L40.0000217,1.99997136 L1.99997817,1.99997136 L1.99997817,30.0000286 Z" id="Shape" fill="#9B9B9B" fill-rule="nonzero"></path>
                    <path d="M13.9997711,17 L5.99977112,17 C5.44769965,17 5,16.5532158 5,16.0002289 C5,15.4467842 5.44769965,15 5.99977112,15 L13.9997711,15 C14.5518425,15 15,15.4467842 15,16.0002289 C15,16.5532158 14.5518425,17 13.9997711,17 Z" id="Path" fill="#9B9B9B"></path>
                    <path d="M13.9997711,22 L5.99977112,22 C5.44769965,22 5,21.5527581 5,20.9997711 C5,20.4467842 5.44769965,20 5.99977112,20 L13.9997711,20 C14.5518425,20 15,20.4467842 15,20.9997711 C15,21.5527581 14.5518425,22 13.9997711,22 Z" id="Path" fill="#9B9B9B"></path>
                    <path d="M13.9997711,27 L5.99977112,27 C5.44769965,27 5,26.5532159 5,26.0002289 C5,25.447242 5.44769965,25 5.99977112,25 L13.9997711,25 C14.5518425,25 15,25.447242 15,26.0002289 C15,26.5532159 14.5518425,27 13.9997711,27 Z" id="Path" fill="#9B9B9B"></path>
                    <path d="M35.9997855,12 L5.99975681,12 C5.44769324,12 5,11.5532158 5,11.0002289 L5,5.00022896 C5,4.44724201 5.44769324,4 5.99975681,4 L35.9997855,4 C36.5518489,4 37,4.44724201 37,5.00022896 L37,11.0002289 C37,11.5532158 36.5518489,12 35.9997855,12 Z" id="Shape" fill="#5FB50C" fill-rule="nonzero"></path>
                    <path d="M39.0002288,43 C32.3832803,43 27,37.6171775 27,31.0002289 C27,24.3828225 32.3832803,19 39.0002288,19 C45.6171775,19 51,24.3828225 51,31.0002289 C51,37.6171775 45.6171775,43 39.0002288,43 Z" id="Shape" fill="#5FB50C" fill-rule="nonzero"></path>
                    <path d="M38.9999999,31 C36.7940031,31 35,29.2056417 35,26.9997712 C35,24.7939006 36.7940031,23 38.9999999,23 C41.2059968,23 43,24.7939006 43,26.9997712 C43,29.2056417 41.2059968,31 38.9999999,31 Z M38.9999999,24.9998855 C37.8967727,24.9998855 37,25.8970647 37,26.9997712 C37,28.1029353 37.8967727,28.9996567 38.9999999,28.9996567 C40.1027695,28.9996567 41,28.1029353 41,26.9997712 C41,25.8970647 40.1027695,24.9998855 38.9999999,24.9998855 Z" id="Shape" fill="#FFFFFF" fill-rule="nonzero"></path>
                    <path d="M36.0000001,37 C33.7940032,37 32,35.2060994 32,33.0002288 C32,30.7943583 33.7940032,29 36.0000001,29 C38.2059969,29 40,30.7943583 40,33.0002288 C40,35.2060994 38.2059969,37 36.0000001,37 Z M36.0000001,31.0003433 C34.8972305,31.0003433 34,31.8970647 34,33.0002288 C34,34.1029353 34.8972305,35.0001145 36.0000001,35.0001145 C37.1032273,35.0001145 38,34.1029353 38,33.0002288 C38,31.8970647 37.1032273,31.0003433 36.0000001,31.0003433 Z" id="Shape" fill="#FFFFFF" fill-rule="nonzero"></path>
                    <path d="M41.9997712,37 C39.7939006,37 38,35.2060994 38,33.0002288 C38,30.7943583 39.7939006,29 41.9997712,29 C44.2056417,29 46,30.7943583 46,33.0002288 C46,35.2060994 44.2056417,37 41.9997712,37 Z M41.9997712,31.0003433 C40.8970647,31.0003433 39.9998855,31.8970647 39.9998855,33.0002288 C39.9998855,34.1029353 40.8970647,35.0001145 41.9997712,35.0001145 C43.1029353,35.0001145 43.9996567,34.1029353 43.9996567,33.0002288 C43.9996567,31.8970647 43.1029353,31.0003433 41.9997712,31.0003433 Z" id="Shape" fill="#FFFFFF" fill-rule="nonzero"></path>
                </g>
            </g>
        </g>
    </g>
</svg>
